svg/wifi_strength_lock_open_outline.svg

<svg xmlns="http://www.w3.org/2000/svg" viewBox="0 0 24 24"><path d="M23.65 7h-.01c-.72.9-1.44 1.79-2.14 2.69-.63-.36-1.33-.58-2.07-.65l1.28-1.59A16.8 16.8 0 0 0 12 5c-3.09 0-6.1.85-8.73 2.44L12 18.3l1-1.3v3.25l-1 1.25C8.13 16.66 4.24 11.83.355 7h.02A18.92 18.92 0 0 1 12 3c4.22 0 8.32 1.41 11.65 4m-1.85 9h-4.3v-2.5c0-.8.7-1.3 1.5-1.3s1.5.5 1.5 1.3v.5h1.3v-.5c0-1.4-1.4-2.5-2.8-2.5s-2.8 1.1-2.8 2.5V16c-.6 0-1.2.6-1.2 1.2v3.5c0 .7.6 1.3 1.2 1.3h5.5c.7 0 1.3-.6 1.3-1.2v-3.5c0-.7-.6-1.3-1.2-1.3"/></svg>

<?xml version="1.0" encoding="UTF-8"?><!DOCTYPE svg PUBLIC "-//W3C//DTD SVG 1.1//EN" "http://www.w3.org/Graphics/SVG/1.1/DTD/svg11.dtd"><svg xmlns="http://www.w3.org/2000/svg" xmlns:xlink="http://www.w3.org/1999/xlink" version="1.1" id="mdi-wifi-strength-lock-open-outline" width="24" height="24" viewBox="0 0 24 24"><path d="M23.65 7H23.64C22.92 7.9 22.2 8.79 21.5 9.69C20.87 9.33 20.17 9.11 19.43 9.04L20.71 7.45C18.09 5.86 15.07 5 12 5C8.91 5 5.9 5.85 3.27 7.44L12 18.3L13 17C13 17.08 13 17.14 13 17.2V20.25L12 21.5C8.13 16.66 4.24 11.83 .355 7H.375C3.7 4.41 7.79 3 12 3C16.22 3 20.32 4.41 23.65 7M21.8 16H17.5V13.5C17.5 12.7 18.2 12.2 19 12.2S20.5 12.7 20.5 13.5V14H21.8V13.5C21.8 12.1 20.4 11 19 11S16.2 12.1 16.2 13.5V16C15.6 16 15 16.6 15 17.2V20.7C15 21.4 15.6 22 16.2 22H21.7C22.4 22 23 21.4 23 20.8V17.3C23 16.6 22.4 16 21.8 16Z" /></svg>
